packages/elvis-assets-icons/icons/svg/src/profile.svg

<svg width="24" height="24" fill="none" xmlns="http://www.w3.org/2000/svg"><path d="M12 12c-3.308 0-6-2.692-6-6s2.692-6 6-6 6 2.692 6 6-2.692 6-6 6zm0-10.5A4.505 4.505 0 007.5 6c0 2.481 2.019 4.5 4.5 4.5s4.5-2.019 4.5-4.5-2.019-4.5-4.5-4.5zM21.75 24a.75.75 0 01-.75-.75c0-4.963-4.037-9-9-9s-9 4.037-9 9a.75.75 0 01-1.5 0c0-5.79 4.71-10.5 10.5-10.5s10.5 4.71 10.5 10.5a.75.75 0 01-.75.75z" fill="#000"/></svg>

<svg width="24" height="24" viewBox="0 0 24 24" fill="none" xmlns="http://www.w3.org/2000/svg">
<path d="M12 12C8.692 12 6 9.308 6 6C6 2.692 8.692 0 12 0C15.308 0 18 2.692 18 6C18 9.308 15.308 12 12 12ZM12 1.5C9.519 1.5 7.5 3.519 7.5 6C7.5 8.481 9.519 10.5 12 10.5C14.481 10.5 16.5 8.481 16.5 6C16.5 3.519 14.481 1.5 12 1.5Z" fill="black"/>
<path d="M21.75 24C21.336 24 21 23.664 21 23.25C21 18.287 16.963 14.25 12 14.25C7.037 14.25 3 18.287 3 23.25C3 23.664 2.664 24 2.25 24C1.836 24 1.5 23.664 1.5 23.25C1.5 17.46 6.21 12.75 12 12.75C17.79 12.75 22.5 17.46 22.5 23.25C22.5 23.664 22.164 24 21.75 24Z" fill="black"/>
</svg>
